X:1
T:The Lord Bless You and Keep You
T:Peter C. Lutkin
%%score 1 2 3 4
L:1/8
Q:1/4=96
M:4/4
K:C
V:1 treble nm="Soprano" snm="S."
V:2 treble nm="Alto" snm="A."
V:3 treble-8 nm="Tenor" snm="T."
V:4 bass nm="Bass" snm="B."
V:1
"^Andante" G2 | G4 E2 CC | (D2 F2) E3 G | G2 EG c>B AE | (G2 ^F2) G2 z2 | z EFE A2 z2 | %6
w: The|Lord bless you and|keep _ you; the|Lord lift His count- te- nance up-|on _ you;|and give you peace,|
 z GAG c z z G | (GE)Gc e>c GE | (G2 F2) E2 EA | A4- AGEG | c3 c c2 A2 | z3 A G3 C | AG z2 G2 F2 | %13
w: and give you peace, the|Lord _ make His face to shine up-|on _ you, and be|gra- * cious un- to|you, be gra- cious,|the Lord be|gra- cious, gra- cious|
 E4 D4 | C2 z2 z4 | z8 | z2 (B2 e2 d2) | c2 (e2 g2) e2 | e2 d2 c2 B2 | A6 (BA) | G6 (AG | %21
w: un- to|you.||A- * *|men, A- * *||men, A- *|men, A- *|
 F2 D2) (G2 A2) | G8 | G8 |] %24
w: * * men, *|A-|men.|
V:2
 C2 | C4 C2 CC | (C2 B,2) C3 F | E2 CE E>E EE | D4 D2 z2 | z ^CCC D2 z2 | z DDD CG(GF) | %7
w: The|Lord bless you and|keep _ you, the|Lord lift His count- te- nance up-|on you;|and give you peace,|and give you peace, the Lord _|
 EC E2 E>E EC | (E2 D2) C2 z2 | z2 CD EE z2 | z2 FG A2 F2 | z3 C C3 C | CC z2 ^C2 D2 | C4 B,4 | %14
w: make * His face to shine up-|on _ you,|and be gra- cious|and be gra- cious,|the Lord be|gra- cious, gra- cious|un- to|
 C2 z2 z4 | z2 (C2 F2 E2) | D4 (E4- | E2 ^F2) G4 | (G2 ^G2) (A2 E2- | E2) (FE) D4- | D2 ED ^C4 | %21
w: you.|A- * *|men, A-|* * men,|A- * men, *|* A- * men,|_ A- * men,|
 (D2 B,2 C4- | C2 DC B,4) | C8 |] %24
w: A- * *||men.|
V:3
 E2 | E4 G2 EE | (A2 G2) G3 c | c2 GG A>^G AA | (B2 A2) B2 z2 | z AAA A2 z2 | z BcB cG(AB) | %7
w: The|Lord bless you and|keep _ you; the|Lord lift His count- te- nance up-|on _ you;|and give you peace,|and give you peace, the Lord _|
 c2 c2 c>c cc | (c2 B2) c2 z2 | z2 AB cc z2 | z2 c_B A2 c2 | z3 c _B3 B | _BB z2 A2 A2 | G6 F2 | %14
w: make His face to shine up-|on _ you,|and be gra- cious|and be gra- cious,|the Lord be|gra- cious, gra- cious|un- to|
 E2 (G2 c2 B2) | A2 (A2 d2 c2) | B4 (G2 AB) | c4 (B2 cd) | (e6 B2) | (c2 dc B4- | B2 cB A4) | %21
w: you. A- * *|men, A- * *|men, A- * *|men A- * *|men, *|A- * * *|* * * men,|
 (A2 _A2 G2 ^F2) | F4 F4 | E8 |] %24
w: A- * * *|men, A-|men.|
V:4
 C,2 | C,4 C,2 C,C, | ((F,,2 G,,2)) C,3 C, | C,2 C,C, A,,>B,, C,C, | D,4 G,G,G,G, | %5
w: The|Lord bless you and|keep _ you; the|Lord lift His count- te- nance up-|on you; and give you|
 (G,4 F,)F,F,F, | (F,4 E,)E, D,2 | (C,C)(G,E,) C,>G, G,G, | (G,2 ^G,2) A,2 z2 | z2 F,F, E,E, z2 | %10
w: peace, _ and give you|peace, _ the Lord|make _ His _ face to shine up-|on _ you,|and be gra- cious|
 z2 D,E, F,2 F,2 | z3 F, E,3 E, | F,E, z2 E,2 D,2 | G,,4 G,,4 | C,2 z2 (C,2 D,E,) | %15
w: and be gra- cious,|the Lord be|gra- cious, gra- cious|un- to|you. A- * *|
 F,4 (D,2 E,F,) | G,4 E,2 F,G, | A,4 (G,2 A,B, | C2 B,2 A,2 G,2) | F,6 (G,F,) | E,6 (F,E, | %21
w: men, A- * *|men, A- * *|men, A- * *||men, A- *|men, A- *|
 D,2 F,2 E,2 _E,2) | D,4 G,,4 | C,8 |] %24
w: |men, A-|men.|

